X: 45
T: Yue xia qing ge
L: 1/8
M: 2/4
K: Bb
b c' [I:setbarnb 1]| 
d' c' b b | 
c'/ d'/c'3 | 
d' c' d' c' | 
g fg2- | 
g2d d | 
d'> d' d' c' | 
d'> b d g | 
d4 | 
b c' c'3/ b/ | 
g g b g | 
g4 | 
d d' c' d' | 
d' c' d' g | 
d4 | 
d g c'3/ b/ | 
d gg2- | 
g2d d | 
g g b c' | 
b gg2 | 
d b g3/ f/ | 
g b ^g f | 
g4- | 
g2 |]

@@@ Tune index: 8713
